X:1
T:Scott Joplin's New Rag
T:Scott Joplin's New Rag
T:By SCOTT JOPLIN
T:A comparison of the original and revised editions
T:Public Domain
T:Public Domain
T:Public Domain
T:Public Domain
T:Public Domain
T:Public Domain
T:Public Domain
T:Public Domain
C:Scott Joplin
Z:Public Domain
%%score { ( 1 4 ) | ( 2 3 ) } { ( 5 8 ) | ( 6 7 ) }
L:1/8
Q:1/4=76
M:2/4
K:C
V:1 treble nm="Original" snm="Org."
V:4 treble 
V:2 bass 
V:3 bass 
V:5 treble nm="Revised" snm="Rvd."
V:8 treble 
V:6 bass 
V:7 bass 
V:1
"^Allegro moderato."!f! C/D/!<(!E/F/- F/G/A/!<)!B/ | c/B/!>(!A/G/- G/F/E!>)! | %2
!mf! (G/A/G/^F/) (G/A/G/F/ | G) [Gg][^FA^f][=FB=f] |:!mf! [ce]>e!<(! [c^d]/e/g/[egc']/-!<)! | %5
!>(! [egc']/b/[ea]!>)! [^da]<[eg] | [ce]>[ce] ([^A^d]/e/[Ag]/e/ | B2 [Bd]/).d'/(d/^d/) | %8
 [ce]>e [c^d]/e/g/[egc']/- | [egc']/b/[ea] [^da]<[eg] | %10
 ([^dac']/^f/!<(!a/!>![dab]/-) [dab]/c'/!<)![dab] |!f! [egbe'] !>![Gcg]!>![^FA^f]!>![=FB=f] | %12
!mf! [ce]>e [c^d]/e/g/[egc']/- | [egc']/b/[ea] [^da]<[eg] | %14
!f! [e^gd'][ege']/[egd']/- [egd'][ebe']/d'/ | ([ac']/e'/c'/a/ e/c/A/E/) | FG/A/-!<(! A/B/c!<)! | %17
 !>![A^da]2 !>![Geg]2 | [Bfa]/!>![Bfg]!>![Bfg]/- [Bfg]/a/g |1 %19
 [egc']!>![Gcg]!>![^FA^f]!>![=FB=f] :|2 [cec'] e/f/- f/^d/e |: %21
!mp! (e/^f/^g/a/!<(! b/c'/d'/e'/)!<)! | [ead']/c'/b/!>![eac']/- [eac']/b/a | %23
 [d^gc']/b/^a/!>(!!>![dgb]/- [dgb]/=a/g!>)! | [ceb]/a/^g/!>![cea]/- [cea]/^d/e | %25
 (e/^f/^g/a/!<(! b/c'/d'/e'/)!<)! | [ead']/c'/b/[eac']/-!<(! [eac']/b/a!<)! |!f! a/c'/b/a/- a/b/a | %28
 [e^g]e/f/- f/^d/e | (e/^f/^g/a/!<(! b/c'/d'/e'/)!<)! | [ead']/c'/b/[eac']/- [eac']/b/a | %31
 [d^gc']/b/^a/[dgb]/- [dgb]/=a/g | b/a/^g/a/- a/a/[cea] | a/f/d/A/- A/d/[Af] | e/c/A/E/- E/F/E | %35
 d/c/B/e/- e/d/c/B/ |1 A e/f/- f/^d/e :|2 Ac Bd/^d/ ||!mf! [ce]>e!<(! [c^d]/e/g/[egc']/-!<)! | %39
!>(! [egc']/b/[ea]!>)! [^da]<[eg] | [ce]>[ce] [^A^d]/e/[Ag]/e/ | B2 [Bd]/.d'/(d/^d/) | %42
 [ce]>e [c^d]/e/g/[egc']/- | [egc']/b/[ea] [^da]<[eg] | [^dac']/^f/a/!>![dab]/- [dab]/c'/[dab] | %45
 [egbe'] !>![Gcg]!>![^FA^f]!>![=FB=f] | [ce]>e!<(! [c^d]/e/g/[egc']/-!<)! | %47
!>(! [egc']/b/[ea]!>)! [^da]<[eg] | [e^gd'][ege']/[egd']/- [egd']([ebe']/d'/) | %49
 ([ac']/e'/c'/a/ e/c/A/E/) | FG/A/-!<(! A/B/c!<)! | !>![A^da]2 !>![Geg]2 | %52
 [Bfa]/!>![Bfg]!>![Bfg]/- [Bfg]/a/g | !>![cec'][Gg]/[Gg]/ [Gg][G^cg] |: %54
!mf! [GBfg]2- [GBfg]/g/[GBd] | [Gc]/!>!g[Geg]/- [Geg][^Gde^g] | [A^cea]2- [Acea]/a/[Ace] | %57
 [Ad]/!>!a[Afa]/- [Afa]!ff![_Bea] | [Afa]>^A B/!>![Bfg]B/ | [fa]/^A/B/[Bfg]/- [Bfg]/B/[dfg] | %60
 [cea]>B c/!>![eg]c/ | [cea]/B/c/[ceg]/- [ceg][G^ceg] |!mf! [GBfg]2- [GBfg]/g/[GBd] | %63
 [Gc]/!>!g[Geg]/- [Geg][^Gde^g] | [A^cea]2- [Acea]/a/[Ace] | [Ad]/a[Afa]/- [Afa]/f/[Ada] | %66
!ff! [c^da]>^f (^d/f/[cda]) | [ceg][cea]/[ceg]/- [ceg]/G/[G_Be] | [FAf](d/c/ B/d/A/B/) |1 %69
 [Ec]g/g/ g[G^cg] :|2 [Ec]!ff! !>![cegc']2 !>![ce^fc'] || z4 | !>![B^d^fb]^F/B/- (B/^f/b) | %73
 [Ae^fa] !>![cefc']2 !>![cefc'] | !>![B^d^fb](B/^A/ B)!mf! (e/f/) ||[K:G] g/f/=f/e/- e/^c/B/_B/ | %76
 (A/=B/c/A/ c/^d/f) | g/f/=f/e/- e/^c/B/_B/ | A/B/c/A/ F(A/B/ | c)(F/G/ A)(^D/E/ | %80
 F)(C/=D/ _E)(A,/B,/ | C)(A,/B,/ C)!>![cefc'] | !>![B^dfb]B/^A/ B(e/f/) | g/f/=f/e/- e/^c/B/_B/ | %84
 A/=B/c/A/ c/^d/f | g/f/=f/e/- e/^c/B/_B/ | A/=B/c/A/ F z | a/_a/g/f/- f/=f/e/_e/ | %88
 d/^c/=c/B/- B/_B/=A/_A/ | G(g/^f/ g)(g/f/ | g) !>![Gcg]!>![^FA^f]!>![=FB=f] || %91
[K:C]!mf! [ce]>e!<(! [c^d]/e/g/[egc']/-!<)! |!>(! [egc']/b/[ea]!>)! [^da]<[eg] | %93
 [ce]>[ce] ([^A^d]/e/[Ag]/e/ | ff/e/ [Bd]/).d'/(d/^d/) | [ce]>e [c^d]/e/g/[egc']/- | %96
 [egc']/b/[ea] [^da]<[eg] | ([^dac']/^f/a/!<(!!>![dab]/-) [dab]/c'/[dab]!<)! | %98
!f! [egbe'] !>![Gcg]!>![^FA^f]!>![=FB=f] |!mf! [ce]>e [c^d]/e/g/[egc']/- | %100
 [egc']/b/[ea] [^da]<[eg] |!f! [e^gd'][ege']/[egd']/- [egd'][ebe']/d'/ | %102
 ([ac']/e'/c'/a/ e/c/A/E/) | FG/A/-!<(! A/B/c!<)! | !>![A^da]2 !>![Geg]2 | %105
 [Bfa]/!>![Bfg]!>![Bfg]/- [Bfg]/a/g ||"^Coda"!ff! c'/b/_b/a/- a/_a/g/^f/ | =f/e/_e/d/- d/=e/f | %108
 [Adfa] z z [Bdfb] | [cegc'] z !fermata!z2!fine! |] %110
V:2
 E,/F,/G,/A,/- A,/B,/C/D/ | E/D/C/B,/- B,/A,/G, | (E/F/E/^D/ E/F/E/D/ | E) [E,E][^D,^D][=D,=D] |: %4
 G,/A,/G, [G,,G,][E,G,C] | C,[G,CE] C,[G,CE] | G,/A,/G, [^C,^C][G,^CE] | [D,D][G,B,F] G,G, | %8
 !>!G,/A,/G, G,,[G,CE] | [C,,C,][G,CE] G,,[E,G,C] | [^F,,^F,][A,B,^F] [B,,,B,,][A,^DF] | %11
 [E,,E,] !>![E,E]!>![^D,^D]!>![=D,=D] | G,/A,/G, [G,,G,][E,G,C] | C,[E,G,C] C,[E,G,C] | %14
 [B,,B,][E,,E,] [^F,,^F,][^G,,^G,] | [A,,A,] z z2 | [D,,D,][F,A,D] [F,,F,][F,A,D] | %17
 [^F,,^F,][F,A,^D] [G,,G,][G,CE] | [G,,G,]!>![A,,A,]!>![B,,B,]!>![G,,G,] |1 %19
 [C,C]!>![E,E]!>![^D,^D]!>![=D,=D] :|2 [C,,C,] E/F/- F/^D/E |: [E,E][D,D][C,C][B,,B,] | %22
 [A,,A,][E,A,C] [E,,E,][E,A,C] | B,,[E,^G,D] E,,[E,G,D] | A,,[E,A,C] C,[E,A,C] | %25
 [E,E][D,D][C,C][B,,B,] | [A,,A,][E,A,C] [E,,E,][E,A,C] | [F,,F,] !>![B,^DA]2 !>![F,,F,] | %28
 [E,,E,]E/F/- F/^D/E | [E,E][D,D][C,C][B,,B,] | [A,,A,][E,A,C] [E,,E,][E,A,C] | %31
 B,,[E,^G,D] E,,[E,G,D] | [A,,A,][A,CE] [C,C][E,E] | D,[A,DF] [E,E][D,D] | %34
 [E,E][E,A,C] [D,D][C,C] | [B,,B,][^G,DE] [E,,E,][G,DE] |1 [A,CE] E/F/- F/^D/E :|2 %37
 [A,CE]2 ([G,B,D]B,) || G,/A,/G, [G,,G,][E,G,C] | C,[E,G,C] G,,[E,G,C] | G,/A,/G, [^C,^C][G,CE] | %41
 [D,D][G,B,F] G,G, | G,/A,/G, [G,,G,][E,G,C] | C,[E,G,C] G,,[E,G,C] | %44
 [^F,,^F,][A,B,^F] B,,[A,^DF] | [E,,E,] !>![E,E]!>![^D,^D]!>![=D,=D] | G,/A,/G, [G,,G,][E,G,C] | %47
 C,[E,G,C] G,,[E,G,C] | [B,,B,][E,,E,] [^F,,^F,][^G,,^G,] | [A,,A,][A,CE] z2 | %50
 [D,,D,][F,A,D] [F,,F,][F,A,D] | [^F,,^F,][F,A,^D] [G,,G,][G,CE] | %52
 !>![G,,G,]!>![A,,A,] !>![B,,B,]!>![G,,G,] | !>![C,C] z z [^A,,^A,] |: %54
 [B,,B,][G,B,F] !>![G,,G,]!>![F,,F,] |"^cresc.    poco" !>![E,,E,][G,CE] [E,E][D,D] | %56
"^a   poco" [^C,^C][E,G,A,C] !>![A,,A,]!>![G,,G,] | [F,,F,][F,A,D] [D,D][^C,^C] | %58
 [D,D][G,B,F] [G,,G,][G,B,F] | [D,D][G,B,F] !>![G,,G,]!>![B,,B,] | [C,C][G,CE] [E,,E,][G,CE] | %61
 [G,,G,][E,G,C] [C,C][^A,,^A,] | [B,,B,][D,F,G,B,] !>![G,,G,]!>![F,,F,] | %63
 [E,,E,]"^cresc.      poco         a        poco"[G,CE] !>![E,E]!>![D,D] | %64
 !>![^C,^C][G,CE] !>![A,,A,]!>![G,,G,] | [F,,F,][F,A,D] [D,,D,][F,,F,] | %66
 !>![^F,,^F,]!>![G,,G,] !>![A,,A,]!>![^F,,^F,] | [G,,G,][G,CE] [E,,E,][^C,,^C,] | %68
 [D,,D,][F,A,D] [G,,G,][D,G,B,] |1 [C,G,C] z z [^A,,^A,] :|2 [C,G,C] z z !>![A,,G,] || z4 | %72
 !>![B,,B,]^F,/B,/- (B,/[I:staff -1]^F/B) |[I:staff +1] !>![C,C] !>![A,,A,]2 !>![A,,A,] | %74
 !>![B,,B,](B,/^A,/ B,) z ||[K:G] [E,G,B,][E,G,B,] !>![E,G,_B,^C]2 | [E,G,A,=C]2 [^D,^F,A,C]2 | %77
 [E,G,B,][E,G,B,] [E,G,_B,^C]2 | [E,A,=C]2 [^D,A,C](F/G/ | A)(^D/E/ F)(C/^C/ | %80
 ^D)(A,/B,/ C)(F,/G,/ | A,)(F,/G,/ A,) !>![A,,A,] | !>![B,,B,] B,/^A,/ B, z | %83
 [E,G,B,][E,G,B,] !>![E,G,_B,^C]2 | [E,G,=A,=C]2 !>![^D,F,A,C]2 | %85
 [E,G,B,][E,G,B,] !>![E,G,_B,^C]2 | [E,A,=C]2 !>![^D,A,C] z | F/=F/E/^D/- D/=D/^C/=C/ | %88
 D/^C/=C/B,/- B,/_B,/A,/_A,/ | G,[K:treble] (G/^F/ G)(G/F/ | G)[K:bass] [E,E][^D,^D][=D,=D] || %91
[K:C] G,/A,/G, [G,,G,][E,G,C] | C,[G,CE] C,[G,CE] | G,/A,/G, [^C,^C][G,^CE] | [D,D][G,B,F] G,G, | %95
 !>!G,/A,/G, G,,[G,CE] | [C,,C,][G,CE] G,,[E,G,C] | [^F,,^F,][A,B,^F] [B,,,B,,][A,^DF] | %98
 [E,,E,] !>![E,E]!>![^D,^D]!>![=D,=D] | G,/A,/G, [G,,G,][E,G,C] | C,[E,G,C] C,[E,G,C] | %101
 [B,,B,][E,,E,] [^F,,^F,][^G,,^G,] | [A,,A,] z z2 | [D,,D,][F,A,D] [F,,F,][F,A,D] | %104
 [^F,,^F,][F,A,^D] [G,,G,][G,CE] | !>![G,,G,]!>![A,,A,]!>![B,,B,]!>![G,,G,] || [C,E,G,C] z z2 | %107
 z4 | D,E,/F,/- F,/D,/[G,,G,] | [C,,C,] z z2 |] %110
V:3
 x4 | x4 | x4 | x4 |: C,2 x2 | x4 | C,2 x2 | x2 D(F/^F/) | C,2 x2 | x4 | x4 | x4 | C,2 x2 | x4 | %14
 x4 | x4 | x4 | x4 | x4 |1 x4 :|2 x4 |: x4 | x4 | x4 | x4 | x4 | x4 | x4 | x4 | x4 | x4 | x4 | x4 | %33
 x4 | x4 | x4 |1 x4 :|2 x4 || C,2 x2 | x4 | C,2 x2 | x2 D(F/^F/) | C,2 x2 | x4 | x4 | x4 | C,2 x2 | %47
 x4 | x4 | x4 | x4 | x4 | x4 | x4 |: x4 | x4 | x4 | x4 | x4 | x4 | x4 | x4 | x4 | x4 | x4 | x4 | %66
 x4 | x4 | x4 |1 x4 :|2 x4 || x4 | x4 | x4 | x4 ||[K:G] x4 | x4 | x4 | x4 | x4 | x4 | x4 | x4 | %83
 x4 | x4 | x4 | x4 | x4 | x4 | x[K:treble] x3 | x[K:bass] x3 ||[K:C] C,2 x2 | x4 | C,2 x2 | %94
 x2 D(F/^F/) | C,2 x2 | x4 | x4 | x4 | C,2 x2 | x4 | x4 | x4 | x4 | x4 | x4 || x4 | x4 | x4 | x4 |] %110
V:4
 x4 | x4 | x4 | x4 |: x4 | x4 | x4 | ff/e/ x2 | x4 | x4 | x4 | x4 | x4 | x4 | x4 | x4 | x4 | x4 | %18
 x4 |1 x4 :|2 x4 |: x4 | x4 | x4 | x4 | x4 | x4 | ^dd- dd | x4 | x4 | x4 | x4 | x4 | x4 | x4 | %35
 x4 |1 x4 :|2 x4 || x4 | x4 | x4 | f!<(!f/e/ x2!<)! | x4 | x4 | x4 | x4 | x4 | x4 | x4 | x4 | x4 | %51
 x4 | x4 | x4 |: x4 | x4 | x4 | x4 | x4 | x4 | x4 | x4 | x4 | x4 | x4 | x4 | x4 | x4 | x4 |1 x4 :|2 %70
 x4 || x4 | x4 | x4 | x4 ||[K:G] x4 | x4 | x4 | x4 | x4 | x4 | x2 C2 | x4 | x4 | x4 | x4 | x4 | %87
 x4 | x4 | x4 | x4 ||[K:C] x4 | x4 | x4 | x4 | x4 | x4 | x4 | x4 | x4 | x4 | x4 | x4 | x4 | x4 | %105
 x4 || x4 | x4 | x4 | x4 |] %110
V:5
!f! C/D/!<(!E/F/- F/G/A/!<)!B/ | c/B/!>(!A/G/- G/F/E!>)! |!mf! (G/A/G/^F/) (G/A/G/F/ | %3
 G) [Gg][A^f][B=f] |:!mf! [ce]>e!<(! [c^d]/e/g/[ec']/-!<)! |!>(! [ec']/b/[ea]!>)! [^da]<[eg] | %6
 [ce]>[ce] ([^A^d]/e/[Ag]/e/ | [Bf]f/e/ d/).d'/(d/^d/) | [ce]>e [c^d]/e/g/[ec']/- | %9
 [ec']/b/[ea] [^da]<[eg] | ([^dac']/^f/!<(!a/!>![dab]/-) [dab]/c'/!<)![dab] | %11
!f! [egbe'] !>![Gg]!>![A^f]!>![B=f] |!mf! [ce]>e [c^d]/e/g/[ec']/- | [ec']/b/[ea] [^da]<[eg] | %14
!f! [e^gd'][ege']/[egd']/- [egd']/e'/[egd'] | ([ac']/e'/c'/a/ e/c/A/E/) | FG/A/-!<(! A/B/c!<)! | %17
 !>![A^da]2 !>![Geg]2 | [Bfa]/!>![Bfg]!>![Bfg]/- [Bfg]/a/g |1 [cec']!>![Gg]!>![A^f]!>![B=f] :|2 %20
 [cec'] e/f/- f/^d/e |:!mp! (e/^f/^g/a/!<(! b/c'/d'/e'/)!<)! | [ead']/c'/b/!>![eac']/- [eac']/b/a | %23
 [d^gc']/b/^a/!>(!!>![dgb]/- [dgb]/=a/g!>)! | [ceb]/a/^g/!>![cea]/- [cea]/^d/e | %25
 (e/^f/^g/a/!<(! b/c'/d'/e'/)!<)! | [ead']/c'/b/[eac']/-!<(! [eac']/b/a!<)! |!f! a/c'/b/a/- a/b/a | %28
 [e^g]e/f/- f/^d/e | (e/^f/^g/a/!<(! b/c'/d'/e'/)!<)! | [ead']/c'/b/[eac']/- [eac']/b/a | %31
 [d^gc']/b/^a/[dgb]/- [dgb]/=a/g | b/a/^g/a/- a/a/[cea] | [Ada]/f/d/A/- A/d/[Af] | %34
 e/c/A/E/- E/F/E | d/c/B/e/- e/d/c/B/ |1 A e/f/- f/^d/e :|2 Ac Bd/^d/ || %38
!mf! [ce]>e!<(! [c^d]/e/g/[ec']/-!<)! |!>(! [ec']/b/[ea]!>)! [^da]<[eg] | %40
 [ce]>[ce] [^A^d]/e/[Ag]/e/ | [Bf]!<(!(f/e/ d/)!<)!.d'/(d/^d/) | [ce]>e [c^d]/e/g/[ec']/- | %43
 [ec']/b/[ea] [^da]<[eg] | [^dac']/^f/a/!>![dab]/- [dab]/c'/[dab] | %45
 [egbe'] !>![Gg]!>![A^f]!>![B=f] | [ce]>e!<(! [c^d]/e/g/[ec']/-!<)! | %47
!>(! [ec']/b/[ea]!>)! [^da]<[eg] | [e^gd'][ege']/[egd']/- [egd']/e'/[egd'] | %49
 ([ac']/e'/c'/a/ e/c/A/E/) | FG/A/-!<(! A/B/c!<)! | !>![A^da]2 !>![Geg]2 | %52
 [Bfa]/!>![Bfg]!>![Bfg]/- [Bfg]/a/[Bfg] | !>![cec'][Gg]/[Gg]/ [Gg][G^ceg] |: %54
!mf! [Gdfg]2- [Gdfg]/g/[GBd] | [Gc]/!>!g[Geg]/- [Geg][^Gde^g] | [A^cea]2- [Acea]/a/[Ace] | %57
 [Ad]/!>!a[Afa]/- [Afa]!ff![_Bea] | [=Bfa]>^A B/!>![Bfg]B/ | [fa]/^A/B/[eg]/- [eg]/B/[dfg] | %60
 [cea]>B c/!>![eg]c/ | [cea]/B/c/[ceg]/- [ceg][G^ceg] |!mf! [Gdfg]2- [Gdfg]/g/[GBd] | %63
 [Gc]/!>!g[Geg]/- [Geg][^Gde^g] | [A^cea]2- [Acea]/a/[Ace] | [Ad]/!>!a[Afa]/- [Afa]/f/[Ada] | %66
!ff! [c^da]>^f (^d/f/[c^da]) | [ceg][cea]/[ceg]/- [ceg]/G/[G_Be] | [FAf](d/c/ B/d/A/B/) |1 %69
 [Ec][Gg]/[Gg]/ [Gg][G^ceg] :|2!ff! [Ec](e/f/ ^f/g/a/b/) || [ce^fc'] [cefc']2 [Aefa] | %72
 !>![B^d^fb]^F/B/- (B/^f/b) | !>![Ae^fa] !>![cefc']2 !>![cefc'] | %74
 !>![B^d^fb](B/^A/ B)!mf! (e/f/) ||[K:G] g/f/=f/e/- e/^c/B/_B/ | (A/=B/c/A/ c/^d/^f) | %77
 g/f/=f/e/- e/^c/B/_B/ | A/B/c/A/ ^F(A/B/ | c)(F/G/ A)(^D/E/ | F)(C/=D/ _E)(A,/B,/ | %81
 C)(A,/B,/ C)!>![cefc'] | !>![B^dfb]B/^A/ B(e/f/) | g/f/=f/e/- e/^c/B/_B/ | A/=B/c/A/ c/^d/^f | %85
 g/f/=f/e/- e/^c/B/_B/ | A/=B/c/A/ ^F z | a/_a/g/f/- f/=f/e/_e/ | d/^c/=c/B/- B/_B/=A/_A/ | %89
 G(g/^f/ g)(g/a/ | g) !>![Gg]!>![A^f]!>![B=f] ||[K:C]!mf! [ce]>e!<(! [c^d]/e/g/[ec']/-!<)! | %92
!>(! [ec']/b/[ea]!>)! [^da]<[eg] | [ce]>[ce] ([^A^d]/e/[Ag]/e/ | [Bf]f/e/ d/).d'/(d/^d/) | %95
 [ce]>e [c^d]/e/g/[ec']/- | [ec']/b/[ea] [^da]<[eg] | %97
 ([^dac']/^f/a/!<(!!>![dab]/-) [dab]/c'/[dab]!<)! |!f! [egbe'] !>![Gg]!>![A^f]!>![B=f] | %99
!mf! [ce]>e [c^d]/e/g/[ec']/- | [ec']/b/[ea] [^da]<[eg] | %101
!f! [e^gd'][ege']/[egd']/- [egd']/e'/[egd'] | ([ac']/e'/c'/a/ e/c/A/E/) | FG/A/-!<(! A/B/c!<)! | %104
 !>![A^da]2 !>![Geg]2 | [Bfa]/!>![Bfg]!>![Bfg]/- [Bfg]/a/g ||!ff! c'/b/_b/a/- a/_a/g/^f/ | %107
 =f/e/_e/d/- d/=e/f | [Adfa] z z [Bdfb] | [cegc'] z !fermata!z2 |] %110
V:6
 E,/F,/G,/A,/- A,/B,/C/D/ | E/D/C/B,/- B,/A,/G, | (E/F/E/^D/ E/F/E/D/ | E) [E,E][^D,^D][=D,=D] |: %4
 G,/A,/G, [G,,G,][E,G,C] | C,[G,CE] C,[G,CE] | G,/A,/G, [^C,^C][G,^CE] | %7
 [D,D][G,B,F] [G,,G,][G,B,F] | !>!G,/A,/G, G,,[G,CE] | [C,,C,][G,CE] G,,[E,G,C] | %10
 [^F,,^F,][A,B,^F] [B,,,B,,][A,^DF] | [E,,E,] !>![E,E]!>![^D,^D]!>![=D,=D] | %12
 G,/A,/G, [G,,G,][E,G,C] | C,[E,G,C] C,[E,G,C] | [B,,B,][E,,E,] [^F,,^F,][^G,,^G,] | [A,,A,] z z2 | %16
 [D,,D,][F,A,D] [F,,F,][F,A,D] | [^F,,^F,][F,A,^D] [G,,G,][G,CE] | %18
 !>![G,,G,]!>![A,,A,]!>![B,,B,]!>![G,,G,] |1 [C,C]!>![E,E]!>![^D,^D]!>![=D,=D] :|2 %20
 [C,,C,] E/F/- F/^D/E |: [E,E][D,D][C,C][B,,B,] | [A,,A,][E,A,C] [E,,E,][E,A,C] | %23
 B,,[E,^G,D] E,,[E,G,D] | A,,[E,A,C] C,[E,A,C] | [E,E][D,D][C,C][B,,B,] | %26
 [A,,A,][E,A,C] [E,,E,][E,A,C] | [F,,F,] !>![B,^DA]2 !>![F,,F,] | [E,,E,]E/F/- F/^D/E | %29
 [E,E][D,D][C,C][B,,B,] | [A,,A,][E,A,C] [E,,E,][E,A,C] | B,,[E,^G,D] E,,[E,G,D] | %32
 [A,,A,][A,CE] [C,C][E,E] | [F,F][A,DF] [E,E][D,D] | [E,E][E,A,C] [D,D][C,C] | %35
 [B,,B,][^G,DE] [E,,E,][G,DE] |1 [A,CE] E/F/- F/^D/E :|2 [A,CE]2 DB, || G,/A,/G, [G,,G,][E,G,C] | %39
 C,[E,G,C] G,,[E,G,C] | G,/A,/G, [^C,^C][G,CE] | [D,D][G,B,F] [G,,G,][G,B,F] | %42
 G,/A,/G, [G,,G,][E,G,C] | C,[E,G,C] G,,[E,G,C] | [^F,,^F,][A,B,^F] B,,[A,^DF] | %45
 [E,,E,] !>![E,E]!>![^D,^D]!>![=D,=D] | G,/A,/G, [G,,G,][E,G,C] | C,[E,G,C] G,,[E,G,C] | %48
 [B,,B,][E,,E,] [^F,,^F,][^G,,^G,] | [A,,A,][A,CE] z2 | [D,,D,][F,A,D] [F,,F,][F,A,D] | %51
 [^F,,^F,][F,A,^D] [G,,G,][G,CE] | !>![G,,G,]!>![A,,A,] !>![B,,B,]!>![G,,G,] | %53
 !>![C,C] z z [^A,,^A,] |: [B,,B,][G,B,F] !>![G,,G,]!>![F,,F,] | %55
"^cresc.    poco" !>![E,,E,][G,CE] [E,E][D,D] |"^a   poco" [^C,^C][E,G,A,C] !>![A,,A,]!>![G,,G,] | %57
 [F,,F,][F,A,D] [D,D][^C,^C] | [D,D][G,B,F] [G,,G,][G,B,F] | [D,D][G,B,F] !>![G,,G,]!>![B,,B,] | %60
 [C,C][G,CE] [E,,E,][G,CE] | [G,,G,][E,G,C] [C,C][^A,,^A,] | %62
 [B,,B,][D,F,G,B,] !>![G,,G,]!>![F,,F,] | %63
 !>![E,,E,]"^cresc.      poco         a        poco"[G,CE] !>![E,E]!>![D,D] | %64
 !>![^C,^C][G,CE] !>![A,,A,]!>![G,,G,] | !>![F,,F,][F,A,D] [D,,D,][F,,F,] | %66
 !>![^F,,^F,]!>![G,,G,] !>![A,,A,]!>![^F,,^F,] | [G,,G,][G,CE] [E,,E,][^C,,^C,] | %68
 [D,,D,][F,A,D] [G,,G,][F,G,B,] |1 [C,E,G,C] z z [^A,,^A,] :|2 [C,E,G,C] z z2 || %71
 [A,,A,] [A,,A,]2 [C,C] | !>![B,,B,]^F,/B,/- (B,/[I:staff -1]^F/B) | %73
[I:staff +1] !>![C,C] !>![A,,A,]2 !>![A,,A,] | !>![B,,B,](B,/^A,/ B,) z || %75
[K:G] [E,G,B,][E,G,B,] !>![E,G,_B,^C]2 | [E,G,A,=C]2 [^D,^F,A,C]2 | %77
 [E,G,B,][E,G,B,] !>![E,G,_B,^C]2 | [E,A,=C]2 [^D,A,C](F/G/ | A)(^D/E/ F)(C/^C/ | %80
 ^D)(A,/B,/ C)(F,/G,/ | A,)(F,/G,/ A,) !>![A,,A,] | !>![B,,B,] B,/^A,/ B, z | %83
 [E,G,B,][E,G,B,] !>![E,G,_B,^C]2 | [E,G,=A,=C]2 !>![^D,^F,A,C]2 | %85
 [E,G,B,][E,G,B,] !>![E,G,_B,^C]2 | [E,A,=C]2 !>![^D,A,C] z | F/=F/E/^D/- D/=D/^C/=C/ | %88
 D/^C/=C/B,/- B,/_B,/A,/_A,/ | G,[K:treble] (G/^F/ G)(G/A/ | G)[K:bass] [E,E][^D,^D][=D,=D] || %91
[K:C] G,/A,/G, [G,,G,][E,G,C] | C,[G,CE] C,[G,CE] | G,/A,/G, [^C,^C][G,^CE] | %94
 [D,D][G,B,F] [G,,G,][G,B,F] | !>!G,/A,/G, G,,[G,CE] | [C,,C,][G,CE] G,,[E,G,C] | %97
 [^F,,^F,][A,B,^F] [B,,,B,,][A,^DF] | [E,,E,] !>![E,E]!>![^D,^D]!>![=D,=D] | %99
 G,/A,/G, [G,,G,][E,G,C] | C,[E,G,C] C,[E,G,C] | [B,,B,][E,,E,] [^F,,^F,][^G,,^G,] | [A,,A,] z z2 | %103
 [D,,D,][F,A,D] [F,,F,][F,A,D] | [^F,,^F,][F,A,^D] [G,,G,][G,CE] | %105
 !>![G,,G,]!>![A,,A,]!>![B,,B,]!>![G,,G,] || [C,E,G,C] z z2 | z4 | D,E,/F,/- F,/D,/[G,,G,] | %109
 [C,,C,] z z2 |] %110
V:7
 x4 | x4 | x4 | x4 |: C,2 x2 | x4 | C,2 x2 | x4 | C,2 x2 | x4 | x4 | x4 | C,2 x2 | x4 | x4 | x4 | %16
 x4 | x4 | x4 |1 x4 :|2 x4 |: x4 | x4 | x4 | x4 | x4 | x4 | x4 | x4 | x4 | x4 | x4 | x4 | x4 | x4 | %35
 x4 |1 x4 :|2 x2 [G,F]2 || C,2 x2 | x4 | C,2 x2 | x4 | C,2 x2 | x4 | x4 | x4 | C,2 x2 | x4 | x4 | %49
 x4 | x4 | x4 | x4 | x4 |: x4 | x4 | x4 | x4 | x4 | x4 | x4 | x4 | x4 | x4 | x4 | x4 | x4 | x4 | %68
 x4 |1 x4 :|2 x4 || x4 | x4 | x4 | x4 ||[K:G] x4 | x4 | x4 | x4 | x4 | x4 | x4 | x4 | x4 | x4 | %85
 x4 | x4 | x4 | x4 | x[K:treble] x3 | x[K:bass] x3 ||[K:C] C,2 x2 | x4 | C,2 x2 | x4 | C,2 x2 | %96
 x4 | x4 | x4 | C,2 x2 | x4 | x4 | x4 | x4 | x4 | x4 || x4 | x4 | x4 | x4 |] %110
V:8
 x4 | x4 | x4 | x4 |: x4 | x4 | x4 | x4 | x4 | x4 | x4 | x4 | x4 | x4 | x4 | x4 | x4 | x4 | x4 |1 %19
 x4 :|2 x4 |: x4 | x4 | x4 | x4 | x4 | x4 | ^dd- dd | x4 | x4 | x4 | x4 | x4 | x4 | x4 | x4 |1 %36
 x4 :|2 x2 B2 || x4 | x4 | x4 | x4 | x4 | x4 | x4 | x4 | x4 | x4 | x4 | x4 | x4 | x4 | x4 | x4 |: %54
 x4 | x4 | x4 | x4 | x4 | x4 | x4 | x4 | x4 | x4 | x4 | x4 | x4 | x4 | x4 |1 x4 :|2 x4 || x4 | x4 | %73
 x4 | x4 ||[K:G] x4 | x4 | x4 | x4 | x4 | x4 | x2 C2 | x4 | x4 | x4 | x4 | x4 | x4 | x4 | x4 | %90
 x4 ||[K:C] x4 | x4 | x4 | x4 | x4 | x4 | x4 | x4 | x4 | x4 | x4 | x4 | x4 | x4 | x4 || x4 | x4 | %108
 x4 | x4 |] %110

